!!!COM: Music21
!!!OTL: Pra Carballo
!!!OMV: pezas_muineiras_pra-carballo_pra-carballo-partitura.musicxml
**kern
*part1
*staff1
*I"Bagpipes
*I'Bag
*clefG^2
*k[]
*M6/8
=1
!LO:TX:a:t=Presto
*MM180
!LO:TX:a:t=[quarter]=180
2r
8aaL
8ggJ
=||
4ee
8cc
8cccL
8bb
8aaJ
=
4ggT
8ee
8ggL
8ff
8eeJ
=
8ddL
8ee
8ffJ
8ggL
8aa
8bbJ
=
8aaT
[4gg
4gg]
16aaLL
16ggJJ
=
4eet
8cc
8cccL
8bb
8cccJ
=
4ggT
8ee
8ggL
8ff
8eeJ
!!linebreak:original
=
8ddL
8ee
8ffJ
8ggL
8aa
8ggJ
!!linebreak:original
=
4.cc
8aaL
8gg
8ffJ
=||
4ee
8cc
8cccL
8bb
8aaJ
=
4ggT
8ee
8ggL
8ff
8eeJ
=
8ddL
8ee
8ffJ
8ggL
8aa
8bbJ
=
8aaT
[4gg
4gg]
16aaLL
16ggJJ
=
4eet
8cc
8cccL
8bb
8cccJ
=
4ggT
8ee
8ggL
8ff
8eeJ
!!linebreak:original
=
8ddL
8ee
8ffJ
8ggL
8aa
8ggJ
=
4cc
8r
8eeL
8dd
8ccJ
=||
4dd
8ee
4ff
8aa
=
8ggL
8ee
8ccJ
8cccL
8bb
8aaJ
=
8bbL
8aa
8ggJ
8ffL
8gg
8aaJ
=
4.ggT
8eeL
8dd
8ccJ
=
4gg
8ee
4ff
8dd
=
4ee
8cc
4aa
8ff
!!linebreak:original
=
4gg
8ee
4ff
8dd
=
4cc
8r
8eeL
8dd
8ccJ
=||
4dd
8ee
4ff
8aa
=
8ggL
8ee
8ccJ
8cccL
8bb
8aaJ
=
8bbL
8aa
8ggJ
8ffL
8gg
8aaJ
=
4.ggT
8eeL
8dd
8ccJ
=
4gg
8ee
4ff
8dd
=
4ee
8cc
8cccL
8bb
8cccJ
!!linebreak:original
=
8ggL
8aa
8ggJ
8ffL
8dd
8ggJ
=
4cc
4r
8aaL
8ggJ
==
*-
!!!system-decoration: s1,s2
